svgs/regular/dolly-empty.svg

<svg xmlns="http://www.w3.org/2000/svg" viewBox="0 0 576 512"><!--! Font Awesome Pro 6.0.0-alpha3 by @fontawesome - https://fontawesome.com License - https://fontawesome.com/license (Commercial License) --><path d="M574.6 304c-4.391-12.5-18.11-19.06-30.59-14.69l-208.3 73.2C318.5 336.9 289.2 320 256 320c-2.023 0-3.917 .4727-5.909 .5957L150.8 16.55C147.6 6.672 138.4 0 127.1 0H24C10.75 0 0 10.75 0 24S10.75 48 24 48h86.59l93.8 287.3C177.8 352.3 160 382 160 416c0 53.02 42.98 96 96 96s96-42.98 96-96c0-2.744-.584-5.326-.8105-8.012l208.8-73.35C572.5 330.2 579 316.5 574.6 304zM256 464c-26.47 0-48-21.53-48-48s21.53-48 48-48s48 21.53 48 48S282.5 464 256 464z"/></svg>

<svg xmlns="http://www.w3.org/2000/svg" viewBox="0 0 576 512"><!-- Font Awesome Pro 6.0.0-alpha2 by @fontawesome - https://fontawesome.com License - https://fontawesome.com/license (Commercial License) --><path d="M574.637 304.043C570.246 291.543 556.527 284.98 544.043 289.355L335.727 362.551C318.494 336.896 289.229 320 256 320C253.977 320 252.086 320.473 250.094 320.596L150.812 16.547C147.594 6.672 138.391 0 128 0H24C10.75 0 0 10.75 0 24S10.75 48 24 48H110.594L204.395 335.271C177.76 352.332 160 382.021 160 416C160 469.02 202.98 512 256 512S352 469.02 352 416C352 413.256 351.418 410.674 351.191 407.988L559.949 334.637C572.465 330.246 579.027 316.543 574.637 304.043ZM256 464C229.533 464 208 442.467 208 416S229.533 368 256 368S304 389.533 304 416S282.467 464 256 464Z"/></svg>
